assets/sonr-icons/folder-locked.svg

<svg xmlns="http://www.w3.org/2000/svg" width="24" height="24" fill="none"><path fill="currentColor" d="M18 18v1h2v-1a1 1 0 0 0-2 0m4 1a1 1 0 0 1 1 1v2a1 1 0 0 1-1 1h-6a1 1 0 0 1-1-1v-2a1 1 0 0 1 1-1v-1a3 3 0 1 1 6 0z"/><path fill="currentColor" d="M10.224 6.056C10.021 6.007 9.793 6 9.011 6H7.799c-.856 0-1.438.001-1.889.038-.439.036-.662.101-.819.181a2 2 0 0 0-.874.874c-.08.157-.145.38-.181.819-.037.45-.038 1.033-.038 1.889v4.4c0 .856.001 1.438.038 1.889.036.439.101.662.181.819.192.377.498.683.874.874.157.08.38.145.819.181.45.037 1.033.037 1.889.037h4.2a1 1 0 0 1 0 2H7.758c-.805 0-1.469 0-2.011-.044-.562-.046-1.078-.145-1.564-.391a4 4 0 0 1-1.748-1.748c-.248-.485-.346-1.002-.391-1.564C2 15.713 2 15.049 2 14.243V9.76c0-.805 0-1.469.044-2.011.046-.562.145-1.079.391-1.565a4 4 0 0 1 1.748-1.748c.485-.248 1.002-.346 1.564-.392C6.289 4 6.952 4 7.758 4h1.355c.635 0 1.114-.001 1.577.11a4 4 0 0 1 1.156.479c.406.249.745.588 1.193 1.037l.072.072.302.301h2.827c.805 0 1.469 0 2.011.044.562.046 1.079.145 1.564.392a4 4 0 0 1 1.748 1.748c.248.485.346 1.002.392 1.564.044.541.044 1.205.044 2.011V12a1 1 0 0 1-2 0v-.2c0-.857-.001-1.439-.038-1.889-.036-.439-.101-.662-.181-.819a2 2 0 0 0-.874-.874c-.157-.079-.38-.145-.819-.181C17.637 8 17.054 8 16.198 8h-3.2a1 1 0 0 1-.707-.293l-.594-.594c-.553-.553-.718-.709-.896-.818a2 2 0 0 0-.578-.239z"/></svg>

<svg xmlns="http://www.w3.org/2000/svg" width="24" height="24" fill="none" viewBox="0 0 24 24"><path fill="#000" d="M18 18V19H20V18C20 17.448 19.552 17 19 17C18.448 17 18 17.448 18 18ZM22 19C22.552 19 23 19.448 23 20V22C23 22.552 22.552 23 22 23H16C15.448 23 15 22.552 15 22V20C15 19.448 15.448 19 16 19V18C16 16.343 17.343 15 19 15C20.657 15 22 16.343 22 18V19Z"/><path fill="#000" d="M10.224 6.056C10.021 6.007 9.793 6 9.011 6H7.799C6.943 6 6.361 6.001 5.91 6.038C5.471 6.074 5.248 6.139 5.091 6.219C4.715 6.411 4.409 6.717 4.217 7.093C4.137 7.25 4.072 7.473 4.036 7.912C3.999 8.362 3.998 8.945 3.998 9.801V14.201C3.998 15.057 3.999 15.639 4.036 16.09C4.072 16.529 4.137 16.752 4.217 16.909C4.409 17.286 4.715 17.592 5.091 17.783C5.248 17.863 5.471 17.928 5.91 17.964C6.36 18.001 6.943 18.001 7.799 18.001H11.999C12.551 18.001 12.999 18.449 12.999 19.001C12.999 19.553 12.551 20.001 11.999 20.001H7.758C6.953 20.001 6.289 20.001 5.747 19.957C5.185 19.911 4.669 19.812 4.183 19.566C3.43 19.183 2.819 18.571 2.435 17.818C2.187 17.333 2.089 16.816 2.044 16.254C2 15.713 2 15.049 2 14.243V9.76C2 8.955 2 8.291 2.044 7.749C2.09 7.187 2.189 6.67 2.435 6.184C2.818 5.431 3.43 4.82 4.183 4.436C4.668 4.188 5.185 4.09 5.747 4.044C6.289 4 6.952 4 7.758 4H9.011C9.045 4 9.079 4 9.113 4C9.748 4 10.227 3.999 10.69 4.11C11.098 4.208 11.489 4.37 11.846 4.589C12.252 4.838 12.591 5.177 13.039 5.626C13.063 5.65 13.087 5.674 13.111 5.698L13.413 5.999H16.24C17.045 5.999 17.709 5.999 18.251 6.043C18.813 6.089 19.33 6.188 19.815 6.435C20.567 6.818 21.179 7.43 21.563 8.183C21.811 8.668 21.909 9.185 21.955 9.747C21.999 10.288 21.999 10.952 21.999 11.758V12C21.999 12.552 21.551 13 20.999 13C20.447 13 19.999 12.552 19.999 12V11.8C19.999 10.943 19.998 10.361 19.961 9.911C19.925 9.472 19.86 9.249 19.78 9.092C19.588 8.715 19.282 8.409 18.906 8.218C18.749 8.139 18.526 8.073 18.087 8.037C17.637 8 17.054 8 16.198 8H12.998C12.733 8 12.478 7.895 12.291 7.707L11.697 7.113C11.144 6.56 10.979 6.404 10.801 6.295C10.623 6.186 10.427 6.104 10.223 6.056H10.224Z"/></svg>
